X:695
T: GLEICHWIE EIN FRUCHTBAR REGEN
N: E2120
O: Europa, Mitteleuropa, Deutschland
R: geistlich, Heiligen - Lied, Legende
M: 4/4
L: 1/4
K: F
E | FEFG | E2A
E | FFGG | A2z
E | FEFG | E2A
E | FFGG | A2z
A | AAAA | G2G
G | EFDE | F2z
F | GGEE | F2B
B | AAGG | F2z

